wp-content/plugins/LayerSlider/assets/static/admin/svgs/duotone/sparkles.svg

<svg viewBox="0 0 512 512" xmlns="http://www.w3.org/2000/svg"><path d="m257.8 187.3 114 52.7c5.7 2.6 9.3 8.3 9.3 14.6 0 6.2-3.6 11.9-9.3 14.5l-114 52.7-52.7 114c-2.6 5.7-8.3 9.3-14.5 9.3-6.3 0-12-3.6-14.6-9.3l-52.7-114-114.008-52.7c-5.665-2.6-9.292-8.3-9.292-14.5 0-6.3 3.627-12 9.292-14.6l114.008-52.7 52.7-114.01c2.6-5.66 8.3-9.29 14.6-9.29 6.2 0 11.9 3.63 14.5 9.29z"/><path d="m327.5 85.19 56.5-21.19 21.2-56.509c1.7-4.506 6-7.491 10.8-7.491s9.1 2.985 10.8 7.491l21.2 56.509 56.5 21.19c4.5 1.69 7.5 6 7.5 10.81 0 4.8-3 9.1-7.5 10.8l-56.5 21.2-21.2 56.5c-1.7 4.5-6 7.5-10.8 7.5s-9.1-3-10.8-7.5l-21.2-56.5-56.5-21.2c-5.4-1.7-7.5-6-7.5-10.8 0-4.81 2.1-9.12 7.5-10.81zm0 320.01 56.5-21.2 21.2-56.5c1.7-5.4 6-7.5 10.8-7.5s9.1 2.1 10.8 7.5l21.2 56.5 56.5 21.2c4.5 1.7 7.5 6 7.5 10.8s-3 9.1-7.5 10.8l-56.5 21.2-21.2 56.5c-1.7 4.5-6 7.5-10.8 7.5s-9.1-3-10.8-7.5l-21.2-56.5-56.5-21.2c-5.4-1.7-7.5-6-7.5-10.8s2.1-9.1 7.5-10.8z" opacity=".4"/></svg>

<svg xmlns="http://www.w3.org/2000/svg" viewBox="0 0 512 512"><!--! Font Awesome Pro 6.2.1 by @fontawesome - https://fontawesome.com License - https://fontawesome.com/license (Commercial License) Copyright 2022 Fonticons, Inc. --><defs><style>.fa-secondary{opacity:.4}</style></defs><path class="fa-primary" d="M257.8 187.3L371.8 240C377.5 242.6 381.1 248.3 381.1 254.6C381.1 260.8 377.5 266.5 371.8 269.1L257.8 321.8L205.1 435.8C202.5 441.5 196.8 445.1 190.6 445.1C184.3 445.1 178.6 441.5 176 435.8L123.3 321.8L9.292 269.1C3.627 266.5 0 260.8 0 254.6C0 248.3 3.627 242.6 9.292 240L123.3 187.3L176 73.29C178.6 67.63 184.3 64 190.6 64C196.8 64 202.5 67.63 205.1 73.29L257.8 187.3z"/><path class="fa-secondary" d="M327.5 85.19L384 64L405.2 7.491C406.9 2.985 411.2 0 416 0C420.8 0 425.1 2.985 426.8 7.491L448 64L504.5 85.19C509 86.88 512 91.19 512 96C512 100.8 509 105.1 504.5 106.8L448 128L426.8 184.5C425.1 189 420.8 192 416 192C411.2 192 406.9 189 405.2 184.5L384 128L327.5 106.8C322.1 105.1 320 100.8 320 96C320 91.19 322.1 86.88 327.5 85.19V85.19zM327.5 405.2L384 384L405.2 327.5C406.9 322.1 411.2 320 416 320C420.8 320 425.1 322.1 426.8 327.5L448 384L504.5 405.2C509 406.9 512 411.2 512 416C512 420.8 509 425.1 504.5 426.8L448 448L426.8 504.5C425.1 509 420.8 512 416 512C411.2 512 406.9 509 405.2 504.5L384 448L327.5 426.8C322.1 425.1 320 420.8 320 416C320 411.2 322.1 406.9 327.5 405.2z"/></svg>
